!!!COA:	Josquin des Prez
!!!CDT:	~1450-1521/08/27
!!!COA2: Richafort
!!!COA3: Mouton
!!!OTL:	Miserimini mei
!!!AGN:	Motet
!!!SCT:	NJE 14.8
!!!SCA:	New Josquin Edition 14.8
!!!voices:	4
**kern	**kern	**kern	**kern
*staff4	*staff3	*staff2	*staff1
*Ivox	*Ivox	*Ivox	*Ivox
*I"Bassus	*I"Tenor	*I"Altus	*I"Superius
*I'B	*I'T	*I'A	*I'S
*clefF4	*clefGv2	*clefGv2	*clefG2
*>[A,B]	*>[A,B]	*>[A,B]	*>[A,B]
*>A	*>A	*>A	*>A
*k[]	*k[]	*k[]	*k[]
*M2/1	*M2/1	*M2/1	*M2/1
*met(C|)	*met(C|)	*met(C|)	*met(C|)
=1-	=1-	=1-	=1-
0r	0r	0r	1.e
.	.	.	2e/
=2	=2	=2	=2
0r	0r	0r	1g
.	.	.	1g
=3	=3	=3	=3
0r	0r	1.A	1a
.	.	.	1a
.	.	2A/	.
=4	=4	=4	=4
0r	0r	1c	2g/
.	.	.	4c/
.	.	.	4d/
.	.	1c	4e/
.	.	.	4f/
.	.	.	4g/
.	.	.	4a/
=5	=5	=5	=5
0r	0r	1d	2b\
.	.	.	2.cc\
.	.	1d	.
.	.	.	8b/L
.	.	.	8a/J
.	.	.	2b\
=6	=6	=6	=6
0r	1.A	2c\	1cc
.	.	4F/	.
.	.	4G/	.
.	.	4A/	2r
.	.	4B\	.
.	2A/	4c\	[2cc\
.	.	4d\	.
=7	=7	=7	=7
0r	1c	2e\	2cc\]
.	.	2.f\	4b\
.	.	.	4a/
.	1c	.	1g
.	.	8e\L	.
.	.	8d\J	.
.	.	2e\	.
=8	=8	=8	=8
0r	1d	1f	2f/
.	.	.	1a
.	1d	2F/	.
.	.	2G/	4g/
.	.	.	4f/
=9	=9	=9	=9
1.AA	2.c\	2.A/	1e
.	4B\	8G/L	.
.	.	8F/J	.
.	1A	2E/	2r
2AA/	.	[2c\	2e/
=10	=10	=10	=10
1C	1G	2c\]	2.e/
.	.	2c\	.
.	.	.	4f/
1C	2r	2c\	2g/
.	2E/	2c\	[2a/
=11	=11	=11	=11
1D	2.F/	1A	4a/]
.	.	.	4g/
.	.	.	1f
.	4G/	.	.
1D	2A/	2.A/	.
.	2F/	.	4e/
.	.	4B\	4d/
=12	=12	=12	=12
1C	1A	1c	1e
2r	1G	2r	2r
[2C/	.	[2e\	[2g/
=13	=13	=13	=13
2C/]	2r	2e\]	2g/]
2C/	1c	2e\	2g/
2C/	.	2e\	2g/
2C/	2c\	2e\	2g/
=14	=14	=14	=14
1C	2c\	1e	1g
.	2c\	.	.
1F	1c	1f	1a
=15	=15	=15	=15
0C	1c	1e	1g
.	1G	2r	2.cc\
.	.	[2e\	.
.	.	.	4b\
=16	=16	=16	=16
2r	2.c\	2e\]	2a/
2C/	.	2e\	2g/
.	4B\	.	.
2D\	2A/	2d\	4f/
.	.	.	4e/
2E\	2G/	[2c\	2g/
=17	=17	=17	=17
2F\	2A/	2c\]	2f/
2C/	2E/	2c\	1e
1D	1F	2.A/	.
.	.	.	2d/
.	.	4G/	.
=18	=18	=18	=18
0AA	[0E	4A/	1e
.	.	4B\	.
.	.	1c	.
.	.	.	2r
.	.	4B\	[2e/
.	.	4A/	.
=19	=19	=19	=19
2r	0E]	1G	2e/]
1E	.	.	2e/
.	.	2r	2e/
2E\	.	[2B\	2e/
=20	=20	=20	=20
2E\	0r	2B\]	1g
2E\	.	2B\	.
2.G\	.	2B\	2d/
.	.	2B\	[2g/
8F\L	.	.	.
8E\J	.	.	.
=21	=21	=21	=21
1D	1r	1d	4g/]
.	.	.	4f/
.	.	.	4f/
.	.	.	8e/L
.	.	.	8d/J
2C/	2r	1G	2e/
[2G\	[2B\	.	[2d/
=22	=22	=22	=22
4G\]	2B\]	2r	2d/]
4F\	.	.	.
4E\	2B\	2G/	2.g/
4D\	.	.	.
1E	2B\	2G/	.
.	.	.	4f/
.	2B\	2G/	4g/
.	.	.	4e/
=23	=23	=23	=23
1D	1d	1A	2.f/
.	.	.	4g/
2r	2c\	1A	4a/
.	.	.	4b\
2AA/	[2e\	.	[2cc\
=24	=24	=24	=24
2.C/	2e\]	2E/	4cc\]
.	.	.	4b\
.	4d\	2.e\	1a
4D\	4c\	.	.
1E	1B	.	.
.	.	4d\	.
.	.	4c\	2g#i/
.	.	4B\	.
=25	=25	=25	=25
0AA	0A	1c	0a
.	.	2r	.
.	.	2c\	.
=26	=26	=26	=26
0r	0r	2d\	2r
.	.	2e\	2g/
.	.	2f\	2a/
.	.	2d\	2b\
=27	=27	=27	=27
0r	0r	2e\	4cc\
.	.	.	4b\
.	.	1f	4a/
.	.	.	4g/
.	.	.	2a/
.	.	2e\	2cc\
=28	=28	=28	=28
1r	1r	2d\	4b\
.	.	.	4a/
.	.	2c\	[2a/
1E	2r	1B	4a/]
.	.	.	8g#i/L
.	.	.	8f#i/J
.	2e\	.	2g#i/
=29	=29	=29	=29
1.F	2c\	0A	0a
.	2.d\	.	.
.	4A/	.	.
2E\	[2c\	.	.
=30	=30	=30	=30
2D\	4c\]	0r	1r
.	8B/L	.	.
.	8A/J	.	.
2C/	2.A/	.	.
1BB	.	.	1b
.	8G#i/L	.	.
.	8F#i/J	.	.
.	2G#i/	.	.
=31	=31	=31	=31
1AA	0A	1e	2.cc\
.	.	.	4b\
2r	.	2.f\	4a/
.	.	.	4g/
2D\	.	.	[2f/
.	.	4e\	.
=32	=32	=32	=32
2D\	1r	2d\	4f/]
.	.	.	4e/
2AA/	.	2c\	1a
1E	1E	1B	.
.	.	.	2g#i/
=33	=33	=33	=33
1r	1F	0A	0a
1AA	2E/	.	.
.	[2A/	.	.
=34	=34	=34	=34
1BB-	2A/]	0r	0r
.	2G/	.	.
2AA/	2.A/	.	.
[2D\	.	.	.
.	4A/	.	.
=35	=35	=35	=35
2D\]	4A/	0r	0r
.	4B\	.	.
2C/	4c\	.	.
.	4A/	.	.
2D\	4B\	.	.
.	4A/	.	.
2AA/	[2c\	.	.
=36	=36	=36	=36
2C/	4c\]	1r	0r
.	4B\	.	.
2D\	1A	.	.
1BB	.	1D	.
.	2G#i/	.	.
=37	=37	=37	=37
1AA	1A	1E	0r
2r	2.F/	1D	.
[2A\	.	.	.
.	8E/L	.	.
.	8D/J	.	.
=38	=38	=38	=38
2A\]	1D	2r	1d
2F\	.	1d	.
2G\	1r	.	1e
2A\	.	2c\	.
=39	=39	=39	=39
2D\	1A	2.d\	1d
1D	.	.	.
.	.	4d\	.
.	2F/	1d	2r
2BB-/	2G/	.	[2g/
=40	=40	=40	=40
2C/	1A	2c\	2g/]
2D\	.	2A/	2f/
2GG/	2G/	2B\	2g/
[2C/	4E/	2G/	2g/
.	4F/	.	.
=41	=41	=41	=41
2C/]	4G/	1c	0e
.	4E/	.	.
2AA/	1A	.	.
1E	.	1B	.
.	2G#i/	.	.
=42	=42	=42	=42
1AA	1A	1c	1e
2r	2r	2r	[1e
[2C/	[2G/	[2c\	.
=43	=43	=43	=43
2C/]	2G/]	2c\]	2e/]
2C/	2G/	2c\	2e/
1D	2.F/	2.A/	1f
.	4G/	4B\	.
=44	=44	=44	=44
0AA	1A	1c	1e
.	1E	1A	1r
=45	=45	=45	=45
0r	0r	1.c	1e
.	.	.	2.g/
.	.	2c\	.
.	.	.	4g/
=46	=46	=46	=46
0r	0r	1c	2a/
.	.	.	1cc
.	.	1d	.
.	.	.	2b\
=47	=47	=47	=47
0r	0r	1c	2cc\
.	.	.	2a/
.	.	2A/	2.cc\
.	.	[2c\	.
.	.	.	4b\
=48	=48	=48	=48
0r	0r	4c\]	2a/
.	.	4d\	.
.	.	1e	2g/
.	.	.	1f
.	.	2d\	.
=49	=49	=49	=49
1AA	1r	[0e	0e
[1C	1E	.	.
=50	=50	=50	=50
2C/]	2.G/	1e]	0r
2C/	.	.	.
.	4G/	.	.
1C	2A/	1r	.
.	[2c\	.	.
=51	=51	=51	=51
1D	2c\]	1d	1r
.	2B\	.	.
[1C	1c	[1e	1g
=52	=52	=52	=52
1C]	2r	2e\]	2.cc\
.	2G/	2e\	.
.	.	.	4b\
2r	2.c\	1e	2a/
2C/	.	.	2g/
.	4B\	.	.
=53	=53	=53	=53
2D\	2A/	2d\	2f/
2E\	2G/	1c	1e
1F	2.A/	.	.
.	.	4B\	2d/
.	4B\	4A/	.
=54	=54	=54	=54
2E\	2c\	2G/	4e/
.	.	.	4f/
1E	2B\	1g	4g/
.	.	.	4a/
.	1e	.	4b\
.	.	.	4g/
2C/	.	2g\	2cc\
=55	=55	=55	=55
1D	2d\	1f	4b\
.	.	.	4a/
.	2c\	.	1a
1E	1B	1e	.
.	.	.	2g#i/
=56	=56	=56	=56
0AAl	0Al	0el	0al
!!LO:LB:i:g=z
=57||	=57||	=57||	=57||
*>B	*>B	*>B	*>B
*k[]	*k[]	*k[]	*k[]
*M2/1	*M2/1	*M2/1	*M2/1
*met(C|)	*met(C|)	*met(C|)	*met(C|)
1r	0c	0r	0r
[1F	.	.	.
=58	=58	=58	=58
1F]	1A	0r	0r
1D	[1B	.	.
=59	=59	=59	=59
1.E	2B\]	0e	0r
.	2E/	.	.
.	1E	.	.
2AA/	.	.	.
=60	=60	=60	=60
1AA	1e	2.c\	0cc
.	.	4d\	.
1A	1c	2e\	.
.	.	[2f\	.
=61	=61	=61	=61
1F	1.d	4f\]	1a
.	.	4e\	.
.	.	4d\	.
.	.	4c\	.
[1G	.	4B\	[1b
.	.	4A/	.
.	2B\	4B\	.
.	.	4c\	.
=62	=62	=62	=62
2G\]	2B\	2d\	2b\]
2C/	1c	1e	2g/
2C/	.	.	[1g
[2c\	4B\	4d\	.
.	4A/	4c\	.
=63	=63	=63	=63
2c\]	1G	2.d\	1g]
2B\	.	.	.
.	.	4e\	.
2.c\	2F/	2f\	2.a/
.	2C/	2e\	.
4B\	.	.	4g/
=64	=64	=64	=64
2A\	2D/	2d\	2f/
2G\	2E/	2.c\	2.e/
2A\	2.F/	.	.
.	.	4A/	8d/L
.	.	.	8c/J
2D\	.	2A/	2d/
.	4G/	.	.
=65	=65	=65	=65
2AA/	1A	1c	0e
1A	.	.	.
.	2E/	1B	.
2G\	[2e\	.	.
=66	=66	=66	=66
1F	2e\]	2r	1r
.	2d\	1A	.
1E	2c\	.	1g
.	[2B\	2G/	.
=67	=67	=67	=67
2D\	4B\]	2F/	1a
.	4A/	.	.
2C/	1A	1E	.
1BB	.	.	1b
.	2G#i/	2D/	.
=68	=68	=68	=68
1AA	2A/	2E/	2.cc\
.	1c	2e\	.
.	.	.	4b\
2r	.	2.e\	2a/
2E\	2B\	.	2g/
.	.	4d\	.
=69	=69	=69	=69
2F\	2A/	2c\	2f/
2G\	2G/	2B\	1e
1A	1F	2c\	.
.	.	2A/	2d/
=70	=70	=70	=70
1AA	2E/	2c\	2e/
.	1c	2A/	1a
2r	.	2.e\	.
2E\	2B\	.	2g/
.	.	4d\	.
=71	=71	=71	=71
2F\	2A/	2c\	2f/
2G\	2G/	2B\	2.e/
1A	1F	2c\	.
.	.	.	8d/L
.	.	.	8c/J
.	.	[2A/	2d/
=72	=72	=72	=72
1AA	0E	4A/]	1e
.	.	4B\	.
.	.	1c	.
2.AA/	.	.	2r
.	.	4B\	[2e/
4BB/	.	4A/	.
=73	=73	=73	=73
2C/	2r	2G/	2e/]
2AA/	2A/	2c\	2e/
2E\	2G/	2B\	2g/
2E\	2E/	2c\	2g/
=74	=74	=74	=74
1D	1F	2d\	1a
.	.	2A/	.
2AA/	2E/	2.c\	1a
4AA/	[2E/	.	.
4BB/	.	4d\	.
=75	=75	=75	=75
2C/	2E/]	2e\	2g/
2AA/	2E/	2c\	2.a/
2E\	2G/	2B\	.
.	.	.	4g/
2E\	2G/	2c\	4g/
.	.	.	8f/L
.	.	.	8e/J
=76	=76	=76	=76
1D	1A	2d\	1f
.	.	2A/	.
2.AA/	1A	2.c\	[1e
4BB/	.	4d\	.
=77	=77	=77	=77
2C/	2G/	2e\	1e]
2AA/	2.A/	4d\	.
.	.	4c\	.
2E\	.	1B	2r
.	8G#i/L	.	.
.	8F#i/J	.	.
2E\	2G#i/	.	[2e/
=78	=78	=78	=78
2AA/	2A/	2.A/	2e/]
2A\	2c\	.	2e/
.	.	4G/	.
2G\	2B\	2E/	2g/
2E\	[2c\	2e\	2g/
=79	=79	=79	=79
2F\	4c\]	2c\	1a
.	4A/	.	.
2D\	2d\	2.f\	.
1F	2c\	.	1a
.	.	4c\	.
.	2A/	2d\	.
=80	=80	=80	=80
0C	1c	1e	1g
.	1G	2r	2.cc\
.	.	[2e\	.
.	.	.	4b\
=81	=81	=81	=81
2r	2.c\	2e\]	2a/
2C/	.	2e\	2g/
.	4B\	.	.
2D\	2A/	2d\	4f/
.	.	.	4e/
2E\	2G/	[2c\	2g/
=82	=82	=82	=82
2F\	2A/	2c\]	2f/
2C/	2E/	2c\	2.e/
1D	1F	2.A/	.
.	.	.	8d/L
.	.	.	8c/J
.	.	.	2d/
.	.	4G/	.
=83	=83	=83	=83
0AA	[0E	4A/	1e
.	.	4B\	.
.	.	1c	.
.	.	.	2r
.	.	4B\	[2e/
.	.	4A/	.
=84	=84	=84	=84
2r	0E]	1G	2e/]
1E	.	.	2e/
.	.	2r	2e/
2E\	.	[2B\	2e/
=85	=85	=85	=85
2E\	0r	2B\]	1g
2E\	.	2B\	.
2.G\	.	2B\	2d/
.	.	2B\	[2g/
8F\L	.	.	.
8E\J	.	.	.
=86	=86	=86	=86
1D	1r	1d	4g/]
.	.	.	4f/
.	.	.	4f/
.	.	.	8e/L
.	.	.	8d/J
2C/	2r	1G	2e/
[2G\	[2B\	.	[2d/
=87	=87	=87	=87
4G\]	2B\]	2r	2d/]
4F\	.	.	.
4E\	2B\	2G/	2.g/
4D\	.	.	.
1E	2B\	2G/	.
.	.	.	4f/
.	2B\	2G/	4g/
.	.	.	4e/
=88	=88	=88	=88
1D	1d	1A	2.f/
.	.	.	4g/
2r	2c\	1A	4a/
.	.	.	4b\
2AA/	[2e\	.	[2cc\
=89	=89	=89	=89
2.C/	2e\]	2E/	4cc\]
.	.	.	4b\
.	4d\	2.e\	2.a/
4D\	4c\	.	.
1E	1B	.	.
.	.	4d\	8g#i/L
.	.	.	8f#i/J
.	.	4c\	2g#i/
.	.	4B\	.
=90	=90	=90	=90
1AA	1A	2c\	2a/
.	.	4A/	2.cc\
.	.	4B\	.
1A	2r	4c\	.
.	.	4d\	4b\
.	2c\	4e\	4cc\
.	.	4c\	4a/
=91	=91	=91	=91
2G\	2B\	2d\	2b\
2E\	2G/	2.e\	1cc
1F	2.A/	.	.
.	.	4d\	.
.	.	4d\	4b\
.	4B\	8c\L	4a/
.	.	8d\J	.
=92	=92	=92	=92
1E	2c\	2e\	4g/
.	.	.	4f/
.	2B\	1e	4e/
.	.	.	4d/
1A	2r	.	2c/
.	2A/	2c\	2cc\
=93	=93	=93	=93
2G\	2B\	2d\	2b\
2E\	2G/	2.e\	1cc
1F	2.A/	.	.
.	.	4d\	.
.	.	4d\	4b\
.	4B\	8c\L	4a/
.	.	8d\J	.
=94	=94	=94	=94
1E	2c\	[0el	4g/
.	.	.	4f/
.	2B\	.	4g/
.	.	.	4a/
2r	2E/	.	4b\
.	.	.	4g/
2AA/	[2e\	.	[2cc\
=95	=95	=95	=95
2.C/	4e\]	0e_	4cc\]
.	4d\	.	4b\
.	2c\	.	1a
4D\	.	.	.
1E	1B	.	.
.	.	.	2g#i/
=96	=96	=96	=96
0AAl	0Al	0e]	0al
==	==	==	==
*-	*-	*-	*-
!!!RDF**kern: l=long note in original notation
!!!RDF**kern: i=editorial accidental
!!!RDF**kern: V=start of tuplet marker
!!!RDF**kern: Z=end of tuplet marker
!!!ENC:	Joel Chapman 2012/1/21
!!!END:	2012/01/21/
!!!EED:	Jesse Rodin
!!!EEV:	2012/02/02/
!!attribution-level@Jos: 5 (doubtful)
!!!ONB:	Translated from MusicXML and edited on 2012/02/02/ by Craig Sapp
!!muse2ps: C^@{COA}?\n@{SCT}^i2I150v95,95,95,150Q16
